X: 8715
T: Cruaca Glas Na hÉireann
R: waltz
M: 3/4
K: Gmajor
D2|B2 c2 B2|A2 B2 A/B/A|G6|D3 [CE] D2|E2 F2 G2|c2 G2- Gc|B6|B4 A/B/A|
G3 F G2|A2 G2 E/F/E|D6|G6|B2 A/B/A G2|E2 F2 G2|A6|d3 B cA|
B3 c B2|A2 B2 A/B/A|G6|D3 [CE] D2|E2 F2 G2|c2 G2- Gc|B6|B4 A/B/A|
G3 A G2|A2 G2 E/F/E|D6|d3 B cA|B2 D2- DD|E2 G2 BG|A6|G6||
d4- d^c|d4 e2|d6|B6|D2 G2- GB|d2 e2- eB|d6-|d4 c/d/c|
B6|B2 c2- c^c|d4 dB|c4 c/d/c|B2 A2 G2|E2 F2 G2|B2 A/B/A G2|[E3e3] [F/f/][E/e/] [D2d2]|
d4- d^c|d4 e2|d6|B6|D2 G3 B|d3 ^c d2|e6|E4 F2|
G3 A G2|A2 G2 E/F/E|D6|d3 B cA|B2 D2- DD|E2 G2 B2|A6|G4||

